Numix/24x24/status/nm-vpn-standalone-lock.svg

<?xml version="1.0" encoding="UTF-8" standalone="no"?>
<svg
   xmlns:dc="http://purl.org/dc/elements/1.1/"
   xmlns:cc="http://creativecommons.org/ns#"
   xmlns:rdf="http://www.w3.org/1999/02/22-rdf-syntax-ns#"
   xmlns:svg="http://www.w3.org/2000/svg"
   xmlns="http://www.w3.org/2000/svg"
   xmlns:sodipodi="http://sodipodi.sourceforge.net/DTD/sodipodi-0.dtd"
   xmlns:inkscape="http://www.inkscape.org/namespaces/inkscape"
   width="24"
   height="24"
   viewBox="0 0 24 24"
   id="svg2"
   version="1.1"
   inkscape:version="0.48.5 r10040"
   sodipodi:docname="nm-vpn-standalone-lock.svg">
  <metadata
     id="metadata14">
    <rdf:RDF>
      <cc:Work
         rdf:about="">
        <dc:format>image/svg+xml</dc:format>
        <dc:type
           rdf:resource="http://purl.org/dc/dcmitype/StillImage" />
      </cc:Work>
    </rdf:RDF>
  </metadata>
  <defs
     id="defs12" />
  <sodipodi:namedview
     pagecolor="#ffffff"
     bordercolor="#666666"
     borderopacity="1"
     objecttolerance="10"
     gridtolerance="10"
     guidetolerance="10"
     inkscape:pageopacity="0"
     inkscape:pageshadow="2"
     inkscape:window-width="1280"
     inkscape:window-height="998"
     id="namedview10"
     showgrid="false"
     inkscape:zoom="9.8333333"
     inkscape:cx="12"
     inkscape:cy="12"
     inkscape:window-x="0"
     inkscape:window-y="0"
     inkscape:window-maximized="1"
     inkscape:current-layer="svg2" />
  <path
     inkscape:connector-curvature="0"
     id="path8"
     d="m 10.667969,2.164062 c -2.957031,0 -5.335938,1.945313 -5.335938,4.363282 l 0,3.273437 -1.332031,0 c -0.738281,0 -1.332031,0.484375 -1.332031,1.089844 l 0,9.816406 c 0,0.605469 0.59375,1.09375 1.332031,1.09375 l 16,0 c 0.738281,0 1.332031,-0.488281 1.332031,-1.09375 l 0,-9.816406 c 0,-0.605469 -0.59375,-1.089844 -1.332031,-1.089844 l -1.332031,0 0,-3.273437 c 0,-2.417969 -2.378907,-4.363282 -5.335938,-4.363282 z m 0,2.179688 2.664062,0 C 14.8125,4.34375 16,5.316406 16,6.527344 l 0,3.273437 -8,0 0,-3.273437 C 8,5.316406 9.1875,4.34375 10.667969,4.34375 z"
     style="fill:#ececec;fill-rule:evenodd;fill-opacity:1" />
</svg>

<svg width="24" xmlns="http://www.w3.org/2000/svg" height="24" viewBox="0 0 24 24" xmlns:xlink="http://www.w3.org/1999/xlink">
<g style="fill-rule:evenodd">
<path style="fill:#000;fill-opacity:.302" d="M 10.667969 3.273438 C 7.710938 3.273438 5.332031 5.21875 5.332031 7.636719 L 5.332031 10.910156 L 4 10.910156 C 3.261719 10.910156 2.667969 11.394531 2.667969 12 L 2.667969 21.816406 C 2.667969 22.421875 3.261719 22.910156 4 22.910156 L 20 22.910156 C 20.738281 22.910156 21.332031 22.421875 21.332031 21.816406 L 21.332031 12 C 21.332031 11.394531 20.738281 10.910156 20 10.910156 L 18.667969 10.910156 L 18.667969 7.636719 C 18.667969 5.21875 16.289062 3.273438 13.332031 3.273438 Z M 10.667969 5.453125 L 13.332031 5.453125 C 14.8125 5.453125 16 6.425781 16 7.636719 L 16 10.910156 L 8 10.910156 L 8 7.636719 C 8 6.425781 9.1875 5.453125 10.667969 5.453125 Z "/>
<path style="fill:#dcdcdc" d="M 10.667969 2.164062 C 7.710938 2.164062 5.332031 4.109375 5.332031 6.527344 L 5.332031 9.800781 L 4 9.800781 C 3.261719 9.800781 2.667969 10.285156 2.667969 10.890625 L 2.667969 20.707031 C 2.667969 21.3125 3.261719 21.800781 4 21.800781 L 20 21.800781 C 20.738281 21.800781 21.332031 21.3125 21.332031 20.707031 L 21.332031 10.890625 C 21.332031 10.285156 20.738281 9.800781 20 9.800781 L 18.667969 9.800781 L 18.667969 6.527344 C 18.667969 4.109375 16.289062 2.164062 13.332031 2.164062 Z M 10.667969 4.34375 L 13.332031 4.34375 C 14.8125 4.34375 16 5.316406 16 6.527344 L 16 9.800781 L 8 9.800781 L 8 6.527344 C 8 5.316406 9.1875 4.34375 10.667969 4.34375 Z "/>
</g>
</svg>
